X:339
T:I'll Hap Ye in My Plaidie
R:Strathspey
B:The Athole Collection
M:C
L:1/8
K:E Minor
g|d>BA>G E>DE>G|d>ed>B d3g|d>BA>G E>DE>G|e>ge>^d e2e:|
g|d>eg>a g/a/b a>g|d>ed>B d3g|d>eg>a g/a/b a>g|e<b a>g e3g|
d>eg>a g/a/b a>g|d>ed>B d3g|d>BA>G E>DE>G|e2 e>^d e3||

